X:648
T:Heiress, The
R:reel
C:Simon Fraser
Z:id:hn-reel-648
M:C|
K:Bm
(3B,CD FB DBFd|BFFE DB,B,D|1 (3B,CD FB DBFB|AEED CA,A,C:|2 (3B,CD FB cAce|
aAed cAA^a||bBcd ef^g^a|bBfe dBB^g|aABc def^g|aAed cAA^a|bBcd ef^g^a|
bBfe dBBc|(3def af b^gaf|ecae cAAc||
